X:1
T:Title
%%score ( 1 2 ) { 3 | 4 }
L:1/8
Q:1/4=100
M:4/4
K:F
V:1 treble nm="Grand Piano"
V:2 treble 
V:3 bass nm="Grand Piano"
V:4 bass 
V:1
 z4 z2 z [Fc] | [Fc][FA] [CA]>[CG] [CF]2 C2 | [B,D]<[DB] [DB]>[DB] [DB]3 [FB] | %3
 [FA][FA][FA][FB] [Fc][FA][CG]F | E4- [Ec]2 z [Ec] | [Fc][FA] [EA]>[EG] [DF]2 CC | %6
 [B,D][DB] [DB]>[DB] [DB]3 [Fd] | [Fd][Fc][FA][CF] C[FA] [EA]>[EG] | F6 z2 | %9
 [Fd]<[Fd] [Fd]>[Fd] [Fd]2 [Bf]2 | [Af]<[Ac] [Ac]>[Ac] [Ac]3 [FA] | %11
 [EG][EG][EG][FA] [GB][Gd][Ec][EB] | [FA]2 [GB]2 .[Ac]2 z2 | [Bd]<[Bd] [Bd]>[Bd] [Bd]2 [Bf]2 | %14
 [Af]<[Ac] [Ac]>[Ac] [Ac]3 [Af] | [Fe][Fd][Fc][EB] [FA][Fc][EG][Ec] | F6 z2 |] %17
V:2
 x8 | x8 | x8 | x8 | G4 z4 | x8 | x8 | x8 | x8 | x8 | x8 | x8 | x8 | x8 | x8 | x8 | x8 |] %17
V:3
 z4 z2 z A, | A,C C>B, A,2 A,2 | F,<F, F,>F, F,3[K:treble] D | CCCC CCC[K:bass]=B, | B,6 z B, | %5
 A,C C>A, A,2 F,F, | F,F, F,>F, F,3 B, | B,A,CA, A,C C>B, | A,6 z2 | B,<B, B,>B, B,2[K:treble] D2 | %10
 C<F F>F F3 C | CCCC CCCC | F2 F2 F[K:bass]F,A,[K:treble]C | F<F F>F F2 D2 | C<C C>C C3 C | %15
 CB,ED[K:bass] CA,B,B, | A,6 z2 |] %17
V:4
 z4 z2 z F, | F,F, E,>E, F,2 F,2 | B,,<B,, B,,>B,, B,,3 B,, | F,F,F,G, A,F,E,D, | C,6 z C, | %5
 F,F, C,>^C, D,2 A,,A,, | B,,B,, B,,>B,, B,,3 B,, | C,C,C,C, C,C, C,>C, | F,6 z2 | z8 | %10
 F,<F, F,>F, F,3 F, | C,C,C,C, C,B,A,G, | F,2 F,2 .F,2 z2 | B,<B, B,>B, B,2 B,,2 | %14
 F,<F, F,>F, F,3 A,, | B,,B,,B,,B,, C,C,C,C, | F,6 z2 |] %17

